X:355
T:El Quirosanu (JHM 008) (Arrg.)
T:Ayer, na romera (JHM 008) (Arrg.)
R:Fandangu
C:Tradicional
S:Msica Tradicional Asturiana, (C) Tello & Tito. Asturies, 2002.
S:http://pagina.de/MusTradAst <telloytito@asturies.org>
A:Asturies
G:Arrg.
Z:Juan Hidalgo Montoya 8
M:3/8
L:1/8
Q:3/8=80
K:D
A|"D"d c/d/c/d/|"G"BGB|"A7"d c/d/c/d/|"D"AFF|
B B/A/G/F/|"G6"GEE|"A7"A A/G/F/E/|"D"FDA|
|ddc|"G"BGB|"A7"ddc|"D"A2 F|BBA|
"G6"GEE|"A7"G F/E/D/C/|"D"D2 A|
ddc|"G"BGB|"A7"ddc|"D"A2 F|
B B/A/G/F/|"G6"GEE|"A7"GFE|"D"D2 z||
W:Ayer en la romera 
W:bail con un aldeanu
W:y estropayome una deda y 
W:desdexome un calcau.
W:
W:Bailando, bailando y al son del tambor,
W:aquel aldeanu todu el pie m'estropay.
W:Con el aldeanu non gelvo a bailar 
W:porque baila de madrees y puede triar.
W:
W:Ay! madre, aquel aldeanu
W:qque no entre en la mi praera,
W:que donde afinca les pates
W:non gelve a nacer la yerba.
W:
W:Aquel aldeanu,
W:que no entre en mi prau,
W:que dond'l afinca
W:no gelve a nacer segu.
W:
W:Y el mi prau cra
W:muy buen alcarcer;
W:si entra, madre, el aldeanu,
W:no gelve a nacer.
W:
W:Yo quiero bailar con Pachu;
W:Pinn, redobla el tambor,
W:que ta mucho ms lixeru
W:y ximilgase mejor.
W:
W:Mir-ylu, mir-ylu,
W:mir-ylu bailar,
W:mir-y qu fegura,
W:qu apriesa les geltes da.
W:
W:Mir-ylu bailando,
W:paez un mpln;
W:mir-y cmo da les geltes,
W:mir-y a Pachn.
W:
